X:1
T:Aholiab, 87.87.87.87.87
T:Aholiab, 87.87.87.87.87
T:Joseph D. Little, 1905
T:Public Domain Courtesy of the Cyber Hymnal™
C:Joseph D. Little, 1905
Z:Public Domain
Z:Courtesy of the Cyber Hymnal™
%%score ( 1 2 ) ( 3 4 )
L:1/8
Q:1/4=103
M:4/4
K:Db
V:1 treble 
V:2 treble 
V:3 bass 
V:4 bass 
V:1
 [DF]>[EG] | [FA]2 [Fd]2 [Ac]2 [GB]2 | [FA]2 [DF]4 [CE]>[DF] | [EG]2 [=E=G]2 [FA]2 [_E_G]2 | %4
 [DF]6 [DF]>[EG] | [FA]2 [Fd]2 [Ac]2 [GB]2 | [FA]4 [DF]2 [FA]>[FA] | [EA]2 [Ec]2 [DB]3 [CA] | %8
 A6 [GA]>[GA] | [Gc]3 [GB] [GA]2 [CG]2 | [DF]2 [FA]2 z2 [FA][FA] | [DB]2 [DA]2 [CG]2 [DF]2 | %12
 [CE]6 [CA][CA] | [DF]3 [DF] [FA]2 [Ad]2 | [Gd]4 !fermata![GB]2 [=Ec][EB] | %15
 [FA]3 [DF] [DF]2 [CE]2 | D6 [CA][CA] | [DF]3 [DF] [FA]2 [Ad]2 | [Gd]4 !fermata![GB]2 [=Ec][EB] | %19
 [FA]3 [DF] [DF]2 [CE]2 | D6 |] %21
V:2
 x2 | x8 | x8 | x8 | x8 | x8 | x8 | x8 | (C4 G2) x2 | x8 | x8 | x8 | x8 | x8 | x8 | x8 | D6 x2 | %17
 x8 | x8 | x8 | D6 |] %21
V:3
 [D,A,]>[D,A,] | [D,D]2 [D,A,]2 (G,A,) (B,C) | [D,D]2 [D,A,]4 [A,,A,]>[A,,A,] | %3
 [A,,A,]2 [A,,A,]2 [A,,C]2 [A,,A,]2 | [D,A,]6 [D,A,]>[D,D] | [D,D]2 [D,A,]2 (G,A,) (B,C) | %6
 [D,D]4 [D,A,]2 [D,D]>[D,D] | [E,C]2 [E,A,]2 [E,=G,]3 [A,,A,] | (A,4 C2) [A,,C]>[A,,C] | %9
 [A,,A,]3 [B,,A,] [C,A,]2 [A,,A,]2 | [D,A,]2 [D,D]2 z2 [D,D][D,D] | [G,D]2 [F,D]2 [E,A,]2 [D,A,]2 | %12
 [A,,A,]6 [A,,A,][A,,A,] | [D,A,]3 [D,A,] [D,D]2 [F,_C]2 | [G,B,]4 [G,D]2 [=G,C][G,D] | %15
 [A,D]3 [A,,D] [A,,A,]2 [A,,G,]2 | [D,F,]6 [A,,A,][A,,A,] | [D,A,]3 [D,A,] [D,D]2 [F,_C]2 | %18
 [G,B,]4 [G,D]2 [=G,C][G,D] | [A,D]3 [A,,D] [A,,A,]2 [A,,G,]2 | [D,F,]6 |] %21
V:4
 x2 | x4 D,2 D,2 | x8 | x8 | x8 | x4 D,2 D,2 | x8 | x8 | A,,6 x2 | x8 | x8 | x8 | x8 | x8 | x8 | %15
 x8 | x8 | x8 | x8 | x8 | x6 |] %21

